<?xml version="1.0" encoding="UTF-8"?>
<map version="1.10" tiledversion="1.10.2" orientation="orthogonal" renderorder="right-down" width="16" height="16" tilewidth="32" tileheight="32" infinite="0" nextlayerid="2" nextobjectid="1">
 <editorsettings>
  <export format="tmx"/>
 </editorsettings>
 <tileset firstgid="1" name="tiles" tilewidth="32" tileheight="32" tilecount="2" columns="2">
  <image source="tiles.png" width="64" height="32"/>
 </tileset>
 <layer id="1" name="floor" width="16" height="16">
  <data encoding="csv">
1,1,1,1,1,1,1,2,1,1,1,1,1,1,1,1,
1,0,0,0,1,0,0,0,0,0,0,0,0,0,0,1,
1,0,0,0,1,0,0,0,0,0,0,0,0,0,0,1,
1,0,0,0,1,0,0,2,1,1,1,1,1,1,1,1,
2,0,0,0,1,0,0,0,0,0,0,0,0,0,0,1,
1,0,0,0,2,0,0,0,0,0,0,2,0,0,0,1,
1,0,0,0,0,0,0,0,0,0,0,0,0,0,0,1,
1,0,0,0,0,0,0,0,0,0,0,0,0,0,0,1,
1,0,0,0,0,0,0,0,0,0,0,0,0,0,0,2,
1,0,0,0,0,0,2,0,0,0,0,0,0,0,0,1,
1,0,0,0,0,0,0,0,0,0,0,0,0,0,0,1,
2,0,0,0,0,0,0,0,0,0,1,1,1,0,0,1,
1,0,0,2,0,0,0,0,0,0,1,0,0,0,0,1,
1,0,0,0,0,0,0,0,0,0,1,0,0,0,0,2,
1,0,0,0,0,0,0,0,0,0,1,0,0,0,0,1,
1,1,1,1,1,1,1,1,2,1,1,1,1,1,1,1
</data>
 </layer>
</map>
